svg/emoji_ufe82b.svg

<?xml version="1.0" encoding="UTF-8" standalone="no"?>
<svg
   xmlns:dc="http://purl.org/dc/elements/1.1/"
   xmlns:cc="http://creativecommons.org/ns#"
   xmlns:rdf="http://www.w3.org/1999/02/22-rdf-syntax-ns#"
   xmlns:svg="http://www.w3.org/2000/svg"
   xmlns="http://www.w3.org/2000/svg"
   xmlns:xlink="http://www.w3.org/1999/xlink"
   xmlns:sodipodi="http://sodipodi.sourceforge.net/DTD/sodipodi-0.dtd"
   xmlns:inkscape="http://www.inkscape.org/namespaces/inkscape"
   width="128"
   height="128"
   style="enable-background:new 0 0 128 128;"
   version="1.1"
   id="svg16"
   sodipodi:docname="emoji_ufe82b.svg"
   inkscape:version="0.92+devel unknown">
  <metadata
     id="metadata22">
    <rdf:RDF>
      <cc:Work
         rdf:about="">
        <dc:format>image/svg+xml</dc:format>
        <dc:type
           rdf:resource="http://purl.org/dc/dcmitype/StillImage" />
      </cc:Work>
    </rdf:RDF>
  </metadata>
  <defs
     id="defs20">
    <linearGradient
       inkscape:collect="always"
       id="linearGradient4745">
      <stop
         style="stop-color:#ffffff;stop-opacity:0.70509785"
         offset="0"
         id="stop4741" />
      <stop
         style="stop-color:#ffffff;stop-opacity:0.39349791"
         offset="1"
         id="stop4743" />
    </linearGradient>
    <linearGradient
       inkscape:collect="always"
       xlink:href="#linearGradient4745"
       id="linearGradient4751"
       x1="64"
       y1="17.286156"
       x2="64"
       y2="110.54047"
       gradientUnits="userSpaceOnUse" />
  </defs>
  <sodipodi:namedview
     pagecolor="#ffffff"
     bordercolor="#666666"
     inkscape:document-rotation="0"
     borderopacity="1"
     objecttolerance="10"
     gridtolerance="10"
     guidetolerance="10"
     inkscape:pageopacity="0"
     inkscape:pageshadow="2"
     inkscape:window-width="1680"
     inkscape:window-height="986"
     id="namedview18"
     showgrid="false"
     inkscape:snap-bbox="true"
     inkscape:snap-bbox-edge-midpoints="true"
     inkscape:snap-page="false"
     showguides="true"
     inkscape:guide-bbox="true"
     inkscape:zoom="1.3613281"
     inkscape:cx="135.6817"
     inkscape:cy="-56.961398"
     inkscape:window-x="0"
     inkscape:window-y="27"
     inkscape:window-maximized="1"
     inkscape:current-layer="svg16">
    <sodipodi:guide
       position="64,128"
       orientation="1,0"
       id="guide4508"
       inkscape:locked="false" />
  </sodipodi:namedview>
  <g
     id="g4739">
    <path
       id="rect4529"
       d="M 18.451172 19.810547 C 18.091838 19.869199 17.688754 19.917439 17.341797 19.978516 C 7.181425 21.767103 2.1464844 24.634766 2.1464844 24.634766 A 1.890189 1.890189 0 0 0 1.203125 26.269531 L 1.203125 27.589844 L 18.451172 19.810547 z "
       style="vector-effect:none;fill:#1e1e82;fill-opacity:1;stroke:none;stroke-width:3.78000021;stroke-miterlimit:4;stroke-dasharray:none;stroke-opacity:0.39288169;paint-order:fill markers stroke" />
    <path
       id="rect4531"
       d="M 36.630859 18.480469 C 29.35856 18.438384 23.353242 19.010405 18.451172 19.810547 L 1.203125 27.589844 L 1.203125 37.064453 L 42.089844 18.625 C 40.203652 18.540379 38.376095 18.490568 36.630859 18.480469 z "
       style="opacity:1;vector-effect:none;fill:#1e8282;fill-opacity:1;stroke:none;stroke-width:3.78000021;stroke-linecap:butt;stroke-linejoin:miter;stroke-miterlimit:4;stroke-dasharray:none;stroke-dashoffset:0;stroke-opacity:0.39288169;paint-order:fill markers stroke" />
    <path
       id="rect4533"
       d="M 42.089844 18.625 L 1.203125 37.064453 L 1.203125 46.541016 L 59.302734 20.337891 C 53.016365 19.396701 47.283147 18.857991 42.089844 18.625 z "
       style="opacity:1;vector-effect:none;fill:#1e821e;fill-opacity:1;stroke:none;stroke-width:3.78000021;stroke-linecap:butt;stroke-linejoin:miter;stroke-miterlimit:4;stroke-dasharray:none;stroke-dashoffset:0;stroke-opacity:0.39288169;paint-order:fill markers stroke" />
    <path
       id="rect4535"
       d="M 59.302734 20.337891 L 1.203125 46.541016 L 1.203125 56.017578 L 75.050781 22.708984 C 71.664581 22.323333 68.096582 21.8154 64.328125 21.150391 C 62.610265 20.847244 60.944495 20.583694 59.302734 20.337891 z "
       style="opacity:1;vector-effect:none;fill:#82821e;fill-opacity:1;stroke:none;stroke-width:3.78000021;stroke-linecap:butt;stroke-linejoin:miter;stroke-miterlimit:4;stroke-dasharray:none;stroke-dashoffset:0;stroke-opacity:0.39288169;paint-order:fill markers stroke" />
    <path
       id="rect4537"
       d="M 75.050781 22.708984 L 1.203125 56.017578 L 1.203125 65.492188 L 93.992188 23.642578 C 88.495474 23.768462 82.192223 23.522317 75.050781 22.708984 z "
       style="opacity:1;vector-effect:none;fill:#821e1e;fill-opacity:1;stroke:none;stroke-width:3.78000021;stroke-linecap:butt;stroke-linejoin:miter;stroke-miterlimit:4;stroke-dasharray:none;stroke-dashoffset:0;stroke-opacity:0.39288169;paint-order:fill markers stroke" />
    <path
       id="rect4539"
       d="M 123.77539 17.642578 C 123.40384 17.864413 119.23734 20.275013 109.97852 22.039062 C 105.69942 22.854343 100.38752 23.496114 93.992188 23.642578 L 1.203125 65.492188 L 1.203125 74.970703 L 124.9082 19.175781 L 123.77539 17.642578 z "
       style="opacity:1;vector-effect:none;fill:#811e82;fill-opacity:1;stroke:none;stroke-width:3.78000021;stroke-linecap:butt;stroke-linejoin:miter;stroke-miterlimit:4;stroke-dasharray:none;stroke-dashoffset:0;stroke-opacity:0.39288169;paint-order:fill markers stroke" />
    <path
       id="rect4583"
       d="M 124.9082 19.175781 L 1.203125 74.970703 L 1.203125 84.445312 L 126.79688 27.800781 L 126.79688 21.732422 L 124.9082 19.175781 z "
       style="vector-effect:none;fill:#1e1e82;fill-opacity:1;stroke:none;stroke-width:3.78000021;stroke-miterlimit:4;stroke-dasharray:none;stroke-opacity:0.39288169;paint-order:fill markers stroke" />
    <path
       id="rect4585"
       d="M 126.79688 27.800781 L 1.203125 84.445312 L 1.203125 93.921875 L 126.79688 37.275391 L 126.79688 27.800781 z "
       style="opacity:1;vector-effect:none;fill:#1e8282;fill-opacity:1;stroke:none;stroke-width:3.78000021;stroke-linecap:butt;stroke-linejoin:miter;stroke-miterlimit:4;stroke-dasharray:none;stroke-dashoffset:0;stroke-opacity:0.39288169;paint-order:fill markers stroke" />
    <path
       id="rect4587"
       d="M 126.79688 37.275391 L 1.203125 93.921875 L 1.203125 103.39844 L 126.79688 46.753906 L 126.79688 37.275391 z "
       style="opacity:1;vector-effect:none;fill:#1e821e;fill-opacity:1;stroke:none;stroke-width:3.78000021;stroke-linecap:butt;stroke-linejoin:miter;stroke-miterlimit:4;stroke-dasharray:none;stroke-dashoffset:0;stroke-opacity:0.39288169;paint-order:fill markers stroke" />
    <path
       id="rect4589"
       d="M 126.79688 46.753906 L 1.203125 103.39844 L 1.203125 108.65039 A 1.890189 1.890189 0 0 0 4.1972656 110.18359 C 4.1972656 110.18359 8.143575 107.28023 17.683594 105.27539 C 17.892391 105.23151 18.118038 105.19128 18.332031 105.14844 L 126.79688 56.228516 L 126.79688 46.753906 z "
       style="opacity:1;vector-effect:none;fill:#82821e;fill-opacity:1;stroke:none;stroke-width:3.78000021;stroke-linecap:butt;stroke-linejoin:miter;stroke-miterlimit:4;stroke-dasharray:none;stroke-dashoffset:0;stroke-opacity:0.39288169;paint-order:fill markers stroke" />
    <path
       id="rect4591"
       d="M 126.79688 56.228516 L 18.332031 105.14844 C 24.261667 103.96136 32.179866 103.18927 42.349609 103.79102 L 126.79688 65.703125 L 126.79688 56.228516 z "
       style="opacity:1;vector-effect:none;fill:#821e1e;fill-opacity:1;stroke:none;stroke-width:3.78000021;stroke-linecap:butt;stroke-linejoin:miter;stroke-miterlimit:4;stroke-dasharray:none;stroke-dashoffset:0;stroke-opacity:0.39288169;paint-order:fill markers stroke" />
    <path
       id="rect4593"
       d="M 126.79688 65.703125 L 42.349609 103.79102 C 47.331516 104.0858 52.859534 104.71702 58.945312 105.7832 L 126.79688 75.181641 L 126.79688 65.703125 z "
       style="opacity:1;vector-effect:none;fill:#811e82;fill-opacity:1;stroke:none;stroke-width:3.78000021;stroke-linecap:butt;stroke-linejoin:miter;stroke-miterlimit:4;stroke-dasharray:none;stroke-dashoffset:0;stroke-opacity:0.39288169;paint-order:fill markers stroke" />
    <path
       id="rect4597"
       d="M 126.79688 75.181641 L 58.945312 105.7832 C 60.472707 106.05079 62.023883 106.33707 63.623047 106.66211 C 67.278706 107.40515 70.739313 107.98806 74.042969 108.45117 L 126.79688 84.65625 L 126.79688 75.181641 z "
       style="vector-effect:none;fill:#1e1e82;fill-opacity:1;stroke:none;stroke-width:3.78000021;stroke-miterlimit:4;stroke-dasharray:none;stroke-opacity:0.39288169;paint-order:fill markers stroke" />
    <path
       id="rect4599"
       d="M 126.79688 84.65625 L 74.042969 108.45117 C 80.717207 109.38677 86.694965 109.79953 91.988281 109.83398 L 126.79688 94.132812 L 126.79688 84.65625 z "
       style="opacity:1;vector-effect:none;fill:#1e8282;fill-opacity:1;stroke:none;stroke-width:3.78000021;stroke-linecap:butt;stroke-linejoin:miter;stroke-miterlimit:4;stroke-dasharray:none;stroke-dashoffset:0;stroke-opacity:0.39288169;paint-order:fill markers stroke" />
    <path
       id="rect4601"
       d="M 126.79688 94.132812 L 91.988281 109.83398 C 99.763539 109.88459 106.09344 109.13912 111.08789 108.10547 C 121.16555 106.0198 126.00391 102.63086 126.00391 102.63086 A 1.890189 1.890189 0 0 0 126.79688 101.0918 L 126.79688 94.132812 z "
       style="opacity:1;vector-effect:none;fill:#1e821e;fill-opacity:1;stroke:none;stroke-width:3.78000021;stroke-linecap:butt;stroke-linejoin:miter;stroke-miterlimit:4;stroke-dasharray:none;stroke-dashoffset:0;stroke-opacity:0.39288169;paint-order:fill markers stroke" />
  </g>
  <path
     style="color:#000000;font-style:normal;font-variant:normal;font-weight:normal;font-stretch:normal;font-size:medium;line-height:normal;font-family:sans-serif;font-variant-ligatures:normal;font-variant-position:normal;font-variant-caps:normal;font-variant-numeric:normal;font-variant-alternates:normal;font-variant-east-asian:normal;font-feature-settings:normal;text-indent:0;text-align:start;text-decoration:none;text-decoration-line:none;text-decoration-style:solid;text-decoration-color:#000000;letter-spacing:normal;word-spacing:normal;text-transform:none;writing-mode:lr-tb;direction:ltr;text-orientation:mixed;dominant-baseline:auto;baseline-shift:baseline;text-anchor:start;white-space:normal;shape-padding:0;clip-rule:nonzero;display:inline;overflow:visible;visibility:visible;isolation:auto;mix-blend-mode:normal;color-interpolation:sRGB;color-interpolation-filters:linearRGB;solid-color:#000000;solid-opacity:1;vector-effect:none;fill:url(#linearGradient4751);fill-opacity:1;fill-rule:evenodd;stroke:none;stroke-width:3.77999997;stroke-linecap:round;stroke-linejoin:round;stroke-miterlimit:4;stroke-dasharray:none;stroke-dashoffset:0;stroke-opacity:1;paint-order:fill markers stroke;color-rendering:auto;image-rendering:auto;shape-rendering:auto;text-rendering:auto;enable-background:accumulate"
     d="M 124.85156 17.287109 A 1.890189 1.890189 0 0 0 123.92383 17.5625 C 123.92383 17.5625 119.67933 20.190803 109.97852 22.039062 C 100.2777 23.887324 85.291108 24.849672 64.328125 21.150391 C 42.95885 17.379412 27.502169 18.189928 17.341797 19.978516 C 7.1814251 21.767103 2.1464844 24.634766 2.1464844 24.634766 A 1.890189 1.890189 0 0 0 1.203125 26.269531 L 1.203125 108.65039 A 1.890189 1.890189 0 0 0 4.1972656 110.18359 C 4.1972656 110.18359 8.1435752 107.28023 17.683594 105.27539 C 27.223612 103.27056 42.175886 102.30282 63.623047 106.66211 C 85.51233 111.11127 101.01024 110.19114 111.08789 108.10547 C 121.16555 106.0198 126.00391 102.63086 126.00391 102.63086 A 1.890189 1.890189 0 0 0 126.79688 101.0918 L 126.79688 19.175781 A 1.890189 1.890189 0 0 0 124.85156 17.287109 z "
     id="path4518" />
  <path
     style="opacity:1;vector-effect:none;fill:none;fill-opacity:1;fill-rule:evenodd;stroke:#000000;stroke-width:3.78;stroke-linecap:round;stroke-linejoin:round;stroke-miterlimit:4;stroke-dasharray:none;stroke-dashoffset:0;stroke-opacity:0.39288169;paint-order:fill markers stroke"
     d="m 3.0924395,26.270501 c 0,0 18.5671175,-10.731041 60.9075615,-3.259336 42.340439,7.471703 60.907559,-3.835157 60.907559,-3.835157 v 81.916672 c 0,0 -17.5694,12.5252 -60.907559,3.7164 -43.338154,-8.808794 -60.9075615,3.84157 -60.9075615,3.84157 z"
     id="path4510"
     inkscape:connector-curvature="0"
     sodipodi:nodetypes="csccscc" />
  <text
     xml:space="preserve"
     style="font-size:40px;line-height:25px;font-family:'Comic Neue';-inkscape-font-specification:'Comic Neue';letter-spacing:0px;word-spacing:0px;fill:#ffffff;stroke:#000000;stroke-width:1px;stroke-linecap:butt;stroke-linejoin:miter;stroke-opacity:0.72053313;fill-opacity:1;"
     x="47.104"
     y="86.112"
     id="text4527"><tspan
       sodipodi:role="line"
       id="tspan4525"
       x="47.104"
       y="86.112"
       style="font-style:normal;font-variant:normal;font-weight:bold;font-stretch:normal;font-size:64px;font-family:'Comic Neue';-inkscape-font-specification:'Comic Neue Bold';fill:#ffffff;fill-opacity:1;stroke:#000000;stroke-opacity:0.72053313;">?</tspan></text>
</svg>

<svg xmlns="http://www.w3.org/2000/svg" xmlns:xlink="http://www.w3.org/1999/xlink" width="128" height="128"><defs><linearGradient id="a"><stop offset="0" stop-color="#fff" stop-opacity=".705"/><stop offset="1" stop-color="#fff" stop-opacity=".393"/></linearGradient><linearGradient xlink:href="#a" id="b" x1="64" y1="17.286" x2="64" y2="110.54" gradientUnits="userSpaceOnUse"/></defs><g stroke-width="3.78" stroke-opacity=".393"><path d="M18.451 19.81c-.36.06-.762.107-1.11.169-10.16 1.788-15.195 4.656-15.195 4.656a1.89 1.89 0 0 0-.943 1.635v1.32l17.248-7.78z" fill="#1e1e82" paint-order="fill markers stroke"/><path d="M36.63 18.48c-7.271-.042-13.277.53-18.179 1.33L1.203 27.59v9.474L42.09 18.625a140.43 140.43 0 0 0-5.46-.145z" fill="#1e8282" paint-order="fill markers stroke"/><path d="M42.09 18.625L1.203 37.065v9.476l58.1-26.203c-6.287-.941-12.02-1.48-17.213-1.713z" fill="#1e821e" paint-order="fill markers stroke"/><path d="M59.303 20.338L1.203 46.54v9.477l73.848-33.309a176.6 176.6 0 0 1-10.723-1.559 194.258 194.258 0 0 0-5.025-.812z" fill="#82821e" paint-order="fill markers stroke"/><path d="M75.05 22.709L1.204 56.018v9.474l92.79-41.85c-5.498.126-11.8-.12-18.942-.933z" fill="#821e1e" paint-order="fill markers stroke"/><path d="M123.775 17.643c-.371.221-4.538 2.632-13.796 4.396-4.28.815-9.591 1.457-15.987 1.604L1.203 65.493v9.478l123.705-55.795-1.133-1.533z" fill="#811e82" paint-order="fill markers stroke"/><path d="M124.908 19.176L1.203 74.97v9.474l125.594-56.644v-6.069l-1.889-2.556z" fill="#1e1e82" paint-order="fill markers stroke"/><path d="M126.797 27.8L1.203 84.446v9.477l125.594-56.647v-9.474z" fill="#1e8282" paint-order="fill markers stroke"/><path d="M126.797 37.275L1.203 93.922v9.476l125.594-56.644v-9.479z" fill="#1e821e" paint-order="fill markers stroke"/><path d="M126.797 46.754L1.203 103.398v5.252a1.89 1.89 0 0 0 2.994 1.534s3.947-2.904 13.487-4.909c.208-.043.434-.084.648-.127l108.465-48.92v-9.474z" fill="#82821e" paint-order="fill markers stroke"/><path d="M126.797 56.229l-108.465 48.92c5.93-1.188 13.848-1.96 24.018-1.358l84.447-38.088V56.23z" fill="#821e1e" paint-order="fill markers stroke"/><path d="M126.797 65.703L42.35 103.791c4.982.295 10.51.926 16.595 1.992l67.852-30.601v-9.479z" fill="#811e82" paint-order="fill markers stroke"/><path d="M126.797 75.182l-67.852 30.601c1.528.268 3.079.554 4.678.88 3.656.742 7.116 1.325 10.42 1.788l52.754-23.795v-9.474z" fill="#1e1e82" paint-order="fill markers stroke"/><path d="M126.797 84.656l-52.754 23.795c6.674.936 12.652 1.349 17.945 1.383l34.809-15.701v-9.477z" fill="#1e8282" paint-order="fill markers stroke"/><path d="M126.797 94.133l-34.809 15.701c7.776.05 14.105-.695 19.1-1.729 10.078-2.085 14.916-5.474 14.916-5.474a1.89 1.89 0 0 0 .793-1.54v-6.958z" fill="#1e821e" paint-order="fill markers stroke"/></g><path style="line-height:normal;font-variant-ligatures:normal;font-variant-position:normal;font-variant-caps:normal;font-variant-numeric:normal;font-variant-alternates:normal;font-variant-east-asian:normal;font-feature-settings:normal;text-indent:0;text-align:start;text-decoration-line:none;text-decoration-style:solid;text-decoration-color:#000;text-transform:none;text-orientation:mixed;shape-padding:0;isolation:auto;mix-blend-mode:normal" d="M124.852 17.287a1.89 1.89 0 0 0-.928.276s-4.245 2.628-13.945 4.476c-9.701 1.848-24.688 2.81-45.65-.889-21.37-3.77-36.827-2.96-46.987-1.171-10.16 1.788-15.196 4.656-15.196 4.656a1.89 1.89 0 0 0-.943 1.635v82.38a1.89 1.89 0 0 0 2.994 1.534s3.947-2.904 13.487-4.909c9.54-2.004 24.492-2.972 45.939 1.387 21.89 4.45 37.387 3.53 47.465 1.443 10.078-2.085 14.916-5.474 14.916-5.474a1.89 1.89 0 0 0 .793-1.54V19.177a1.89 1.89 0 0 0-1.945-1.889z" color="#000" font-weight="400" font-family="sans-serif" white-space="normal" overflow="visible" fill="url(#b)" fill-rule="evenodd" stroke-width="3.78" stroke-linecap="round" stroke-linejoin="round" paint-order="fill markers stroke"/><path d="M3.092 26.27S21.66 15.54 64 23.012c42.34 7.472 60.908-3.835 60.908-3.835v81.917s-17.57 12.525-60.908 3.716C20.662 96 3.092 108.651 3.092 108.651z" fill="none" fill-rule="evenodd" stroke="#000" stroke-width="3.78" stroke-linecap="round" stroke-linejoin="round" stroke-opacity=".393" paint-order="fill markers stroke"/><text style="line-height:25px;-inkscape-font-specification:'Comic Neue'" x="47.104" y="86.112" font-size="40" font-family="Comic Neue" letter-spacing="0" word-spacing="0" fill="#fff" stroke="#000" stroke-opacity=".721"><tspan x="47.104" y="86.112" style="-inkscape-font-specification:'Comic Neue Bold'" font-weight="700" font-size="64">?</tspan></text></svg>
